assets/stickers/emoticons/stickers/imgly_sticker_emoticons_sobbing.svg

<svg height="59" viewBox="0 0 62 59" width="62" xmlns="http://www.w3.org/2000/svg"><g fill="none"><path d="m61.3 34.5c0 13-11.9 23.5-30.3 23.5s-30.3-10.5-30.3-23.5 11.9-32.5 30.3-32.5 30.3 19.5 30.3 32.5z" fill="#f7910b"/><path d="m61.3 34.5c0 13-11.9 19.5-30.3 19.5s-30.3-6.5-30.3-19.5 11.9-34.5 30.3-34.5 30.3 21.5 30.3 34.5z" fill="#f7910b"/><path d="m31 0c18.4 0 30.3 21.5 30.3 34.5s-11.9 19.5-30.3 19.5" fill="#f9a908"/><path d="m61.3 34.5c0 13-11.9 19.5-30.3 19.5s-30.3-6.5-30.3-19.5 11.9-32.5 30.3-32.5 30.3 19.5 30.3 32.5z" fill="#f9a908"/><path d="m.7 34.5c0-13 11.9-32.5 30.3-32.5" fill="#f9c55d"/><path d="m31 2c18.4 0 30.3 19.5 30.3 32.5s-11.9 23.5-30.3 23.5" fill="#f7910b"/><path d="m31 2c18.4 0 30.3 19.5 30.3 32.5" fill="#ea7103"/><g transform="translate(18 10)"><path d="m7.2 2.7c.2 1.3-1.3.9-3.1 1.2s-3.1 1.2-3.3-.1 1.1-2.6 2.9-2.8c1.7-.4 3.3.5 3.5 1.7z" fill="#19bca4"/><path d="m7.2 2.7c.2 1.3-1.3.9-3.1 1.2s-3.1 1.2-3.3-.1" fill="#109da0"/></g><g transform="translate(36 10)"><path d="m.8 2.7c-.2 1.3 1.3.9 3.1 1.2s3.1 1.2 3.3-.1-1.1-2.6-2.9-2.8c-1.7-.4-3.3.5-3.5 1.7z" fill="#19bca4"/><path d="m.8 2.7c-.2 1.3 1.3.9 3.1 1.2s3.1 1.2 3.3-.1" fill="#109da0"/></g><g transform="translate(11 25)"><path d="m15.8 2.8c0 1.2-3.5.7-7.8.7s-7.8.6-7.8-.7 3.5-2.2 7.8-2.2 7.8 1 7.8 2.2z" fill="#f9c55d"/><path d="m39.8 2.8c0 1.2-3.5.7-7.8.7s-7.8.6-7.8-.7 3.5-2.2 7.8-2.2 7.8 1 7.8 2.2z" fill="#f9a908"/></g><ellipse cx="9.3" cy="31.5" fill="#f7910b" rx="1" ry="1"/><ellipse cx="4.8" cy="33.5" fill="#f7910b" rx="1.1" ry="1.1"/><ellipse cx="7.8" cy="29.5" fill="#f7910b" rx="1" ry="1"/><circle cx="12.4" cy="31.3" fill="#f7910b" r="1"/><circle cx="51.6" cy="31.8" fill="#f9a908" r="1"/><circle cx="54.1" cy="33.2" fill="#f9a908" r="1"/><circle cx="48.8" cy="24.4" fill="#f9a908" r="1"/><circle cx="48.3" cy="36" fill="#f9a908" r="1.3"/><circle cx="55.5" cy="36.1" fill="#f9a908" r="1"/><ellipse cx="8.3" cy="35.5" fill="#f7910b" rx="1" ry="1"/><circle cx="9.1" cy="27.1" fill="#f7910b" r="1"/><g fill="#f9a908"><ellipse cx="3.8" cy="13.3" rx="1.1" ry="1.1"/><ellipse cx="7" cy="9.8" rx="1" ry="1"/><circle cx="58.2" cy="15.7" r="1"/><ellipse cx="57.4" cy="12.8" rx="1" ry="1"/><path d="m60.5 13.3c0 .3-.2.5-.5.5s-.5-.2-.5-.5.2-.5.5-.5c.2 0 .5.3.5.5z"/><ellipse cx="5" cy="16.3" rx="1" ry="1"/></g><g transform="translate(15 21)"><path d="m8 36c0 2.3-1.7.1-4 .1-2.3 0-4 .2-4-2.1v-29.9c0-2.3 1.7-4.1 4-4.1 2.3 0 4 1.8 4 4.1z" fill="#98dded"/><path d="m4 0c2.3 0 4 1.8 4 4.1v31.9c0 2.3-1.8.1-4.1.1" fill="#78c7dd"/></g><g transform="translate(39 21)"><path d="m0 36c0 2.3 1.7.1 4 .1 2.3 0 4 .2 4-2.1v-29.9c0-2.3-1.7-4.1-4-4.1-2.3 0-4 1.8-4 4.1z" fill="#78c7dd"/><path d="m4 0c-2.3 0-4 1.8-4 4.1v31.9c0 2.3 1.8.1 4.1.1" fill="#98dded"/></g><g transform="translate(24 31)"><path d="m13.2 11.1c0 6.1-2.8 4.1-6.2 4.1-3.5 0-6.2 2-6.2-4.1s2.8-11.1 6.2-11.1c3.5 0 6.2 4.9 6.2 11.1z" fill="#99144a"/><path d="m13.2 11.1c0 6.1-2.8 4.1-6.2 4.1-3.5 0-6.2 2-6.2-4.1" fill="#6d0c38"/></g><path d="m31 36.5c1.9 0 3.7-.3 5.2-.7-1.2-2.9-3.1-4.8-5.2-4.8s-4 1.9-5.2 4.8c1.5.4 3.3.7 5.2.7z" fill="#eadaea"/><g transform="translate(14 20)"><path d="m8.9 6.3c-.4-.1-.8-.3-1.1-.7-1.1-1.6-3.4-2-5-.9-.8.5-1.8.3-2.3-.4-.5-.8-.3-1.8.4-2.3 3.1-2.2 7.4-1.4 9.6 1.8.5.7.3 1.8-.4 2.3-.4.2-.8.3-1.2.2z" fill="#1e4784"/><path d="m10.5 3.7c.5.7.3 1.8-.4 2.3-.4.3-.8.3-1.2.3-.4-.1-.8-.3-1.1-.7-1.1-1.6-3.4-2-5-.9-.8.5-1.8.3-2.3-.4-.5-.8-.3-1.8.4-2.3" fill="#02243e"/></g><g transform="translate(37 20)"><path d="m2.1 6.3c.4-.1.8-.3 1.1-.7 1.1-1.6 3.4-2 5-.9.8.5 1.8.3 2.3-.4.5-.8.3-1.8-.4-2.3-3.1-2.2-7.4-1.4-9.6 1.8-.5.7-.3 1.8.4 2.3.4.2.8.3 1.2.2z" fill="#1e4784"/><path d="m.5 3.7c-.5.7-.3 1.8.4 2.3.4.3.8.3 1.2.3.4-.1.8-.3 1.1-.7 1.1-1.6 3.4-2 5-.9.8.5 1.8.3 2.3-.4.5-.8.3-1.8-.4-2.3" fill="#02243e"/></g></g></svg>

<?xml version="1.0" encoding="UTF-8"?>
<svg width="62px" height="59px" viewBox="0 0 62 59" version="1.1" xmlns="http://www.w3.org/2000/svg" xmlns:xlink="http://www.w3.org/1999/xlink">
    <!-- Generator: Sketch 43.1 (39012) - http://www.bohemiancoding.com/sketch -->
    <title>imgly_sticker_emoticons_sobbing</title>
    <desc>Created with Sketch.</desc>
    <defs></defs>
    <g id="Page-1" stroke="none" stroke-width="1" fill="none" fill-rule="evenodd">
        <g id="sobbing" fill-rule="nonzero">
            <path d="M61.3,34.5 C61.3,47.5 49.4,58 31,58 C12.6,58 0.7,47.5 0.7,34.5 C0.7,21.5 12.6,2 31,2 C49.4,2 61.3,21.5 61.3,34.5 Z" id="Shape" fill="#F7910B"></path>
            <path d="M61.3,34.5 C61.3,47.5 49.4,54 31,54 C12.6,54 0.7,47.5 0.7,34.5 C0.7,21.5 12.6,0 31,0 C49.4,0 61.3,21.5 61.3,34.5 Z" id="Shape" fill="#F7910B"></path>
            <path d="M31,0 C49.4,0 61.3,21.5 61.3,34.5 C61.3,47.5 49.4,54 31,54" id="Shape" fill="#F9A908"></path>
            <path d="M61.3,34.5 C61.3,47.5 49.4,54 31,54 C12.6,54 0.7,47.5 0.7,34.5 C0.7,21.5 12.6,2 31,2 C49.4,2 61.3,21.5 61.3,34.5 Z" id="Shape" fill="#F9A908"></path>
            <path d="M0.7,34.5 C0.7,21.5 12.6,2 31,2" id="Shape" fill="#F9C55D"></path>
            <path d="M31,2 C49.4,2 61.3,21.5 61.3,34.5 C61.3,47.5 49.4,58 31,58" id="Shape" fill="#F7910B"></path>
            <path d="M31,2 C49.4,2 61.3,21.5 61.3,34.5" id="Shape" fill="#EA7103"></path>
            <g id="Group" transform="translate(18.000000, 10.000000)">
                <g id="Shape">
                    <path d="M7.2,2.7 C7.4,4 5.9,3.6 4.1,3.9 C2.3,4.2 1,5.1 0.8,3.8 C0.6,2.5 1.9,1.2 3.7,1 C5.4,0.6 7,1.5 7.2,2.7 Z" fill="#19BCA4"></path>
                    <path d="M7.2,2.7 C7.4,4 5.9,3.6 4.1,3.9 C2.3,4.2 1,5.1 0.8,3.8" fill="#109DA0"></path>
                </g>
                <g transform="translate(18.000000, 0.000000)" id="Shape">
                    <path d="M0.8,2.7 C0.6,4 2.1,3.6 3.9,3.9 C5.7,4.2 7,5.1 7.2,3.8 C7.4,2.5 6.1,1.2 4.3,1 C2.6,0.6 1,1.5 0.8,2.7 Z" fill="#19BCA4"></path>
                    <path d="M0.8,2.7 C0.6,4 2.1,3.6 3.9,3.9 C5.7,4.2 7,5.1 7.2,3.8" fill="#109DA0"></path>
                </g>
            </g>
            <g id="Group" transform="translate(11.000000, 25.000000)">
                <path d="M15.8,2.8 C15.8,4 12.3,3.5 8,3.5 C3.7,3.5 0.2,4.1 0.2,2.8 C0.2,1.5 3.7,0.6 8,0.6 C12.3,0.6 15.8,1.6 15.8,2.8 Z" id="Shape" fill="#F9C55D"></path>
                <path d="M39.8,2.8 C39.8,4 36.3,3.5 32,3.5 C27.7,3.5 24.2,4.1 24.2,2.8 C24.2,1.5 27.7,0.6 32,0.6 C36.3,0.6 39.8,1.6 39.8,2.8 Z" id="Shape" fill="#F9A908"></path>
            </g>
            <ellipse id="Oval" fill="#F7910B" cx="9.3" cy="31.5" rx="1" ry="1"></ellipse>
            <ellipse id="Oval" fill="#F7910B" cx="4.8" cy="33.5" rx="1.1" ry="1.1"></ellipse>
            <ellipse id="Oval" fill="#F7910B" cx="7.8" cy="29.5" rx="1" ry="1"></ellipse>
            <circle id="Oval" fill="#F7910B" cx="12.4" cy="31.3" r="1"></circle>
            <circle id="Oval" fill="#F9A908" cx="51.6" cy="31.8" r="1"></circle>
            <circle id="Oval" fill="#F9A908" cx="54.1" cy="33.2" r="1"></circle>
            <circle id="Oval" fill="#F9A908" cx="48.8" cy="24.4" r="1"></circle>
            <circle id="Oval" fill="#F9A908" cx="48.3" cy="36" r="1.3"></circle>
            <circle id="Oval" fill="#F9A908" cx="55.5" cy="36.1" r="1"></circle>
            <ellipse id="Oval" fill="#F7910B" cx="8.3" cy="35.5" rx="1" ry="1"></ellipse>
            <circle id="Oval" fill="#F7910B" cx="9.1" cy="27.1" r="1"></circle>
            <ellipse id="Oval" fill="#F9A908" cx="3.8" cy="13.3" rx="1.1" ry="1.1"></ellipse>
            <ellipse id="Oval" fill="#F9A908" cx="7" cy="9.8" rx="1" ry="1"></ellipse>
            <circle id="Oval" fill="#F9A908" cx="58.2" cy="15.7" r="1"></circle>
            <ellipse id="Oval" fill="#F9A908" cx="57.4" cy="12.8" rx="1" ry="1"></ellipse>
            <path d="M60.5,13.3 C60.5,13.6 60.3,13.8 60,13.8 C59.7,13.8 59.5,13.6 59.5,13.3 C59.5,13 59.7,12.8 60,12.8 C60.2,12.8 60.5,13.1 60.5,13.3 Z" id="Shape" fill="#F9A908"></path>
            <ellipse id="Oval" fill="#F9A908" cx="5" cy="16.3" rx="1" ry="1"></ellipse>
            <g id="Group" transform="translate(15.000000, 21.000000)">
                <g id="Shape">
                    <path d="M8,36 C8,38.3 6.3,36.1 4,36.1 L4,36.1 C1.7,36.1 0,36.3 0,34 L0,4.1 C0,1.8 1.7,0 4,0 L4,0 C6.3,0 8,1.8 8,4.1 L8,36 Z" fill="#98DDED"></path>
                    <path d="M4,0 L4,0 C6.3,0 8,1.8 8,4.1 L8,36 C8,38.3 6.2,36.1 3.9,36.1 L3.9,36.1" fill="#78C7DD"></path>
                </g>
                <g transform="translate(24.000000, 0.000000)" id="Shape">
                    <path d="M0,36 C0,38.3 1.7,36.1 4,36.1 L4,36.1 C6.3,36.1 8,36.3 8,34 L8,4.1 C8,1.8 6.3,0 4,0 L4,0 C1.7,0 0,1.8 0,4.1 L0,36 Z" fill="#78C7DD"></path>
                    <path d="M4,0 L4,0 C1.7,0 0,1.8 0,4.1 L0,36 C0,38.3 1.8,36.1 4.1,36.1 L4.1,36.1" fill="#98DDED"></path>
                </g>
            </g>
            <g id="Group" transform="translate(24.000000, 31.000000)">
                <path d="M13.2,11.1 C13.2,17.2 10.4,15.2 7,15.2 C3.5,15.2 0.8,17.2 0.8,11.1 C0.8,5 3.6,0 7,0 C10.5,0 13.2,4.9 13.2,11.1 Z" id="Shape" fill="#99144A"></path>
                <path d="M13.2,11.1 C13.2,17.2 10.4,15.2 7,15.2 C3.5,15.2 0.8,17.2 0.8,11.1" id="Shape" fill="#6D0C38"></path>
            </g>
            <path d="M31,36.5 C32.9,36.5 34.7,36.2 36.2,35.8 C35,32.9 33.1,31 31,31 C28.9,31 27,32.9 25.8,35.8 C27.3,36.2 29.1,36.5 31,36.5 Z" id="Shape" fill="#EADAEA"></path>
            <g id="Group" transform="translate(14.000000, 20.000000)">
                <g id="Shape">
                    <path d="M8.9,6.3 C8.5,6.2 8.1,6 7.8,5.6 C6.7,4 4.4,3.6 2.8,4.7 C2,5.2 1,5 0.5,4.3 C1.74860126e-15,3.5 0.2,2.5 0.9,2 C4,-0.2 8.3,0.6 10.5,3.8 C11,4.5 10.8,5.6 10.1,6.1 C9.7,6.3 9.3,6.4 8.9,6.3 Z" fill="#1E4784"></path>
                    <path d="M10.5,3.7 C11,4.4 10.8,5.5 10.1,6 C9.7,6.3 9.3,6.3 8.9,6.3 C8.5,6.2 8.1,6 7.8,5.6 C6.7,4 4.4,3.6 2.8,4.7 C2,5.2 1,5 0.5,4.3 C1.74860126e-15,3.5 0.2,2.5 0.9,2" fill="#02243E"></path>
                </g>
                <g transform="translate(23.000000, 0.000000)" id="Shape">
                    <path d="M2.1,6.3 C2.5,6.2 2.9,6 3.2,5.6 C4.3,4 6.6,3.6 8.2,4.7 C9,5.2 10,5 10.5,4.3 C11,3.5 10.8,2.5 10.1,2 C7,-0.2 2.7,0.6 0.5,3.8 C9.71445147e-16,4.5 0.2,5.6 0.9,6.1 C1.3,6.3 1.7,6.4 2.1,6.3 Z" fill="#1E4784"></path>
                    <path d="M0.5,3.7 C9.71445147e-16,4.4 0.2,5.5 0.9,6 C1.3,6.3 1.7,6.3 2.1,6.3 C2.5,6.2 2.9,6 3.2,5.6 C4.3,4 6.6,3.6 8.2,4.7 C9,5.2 10,5 10.5,4.3 C11,3.5 10.8,2.5 10.1,2" fill="#02243E"></path>
                </g>
            </g>
        </g>
    </g>
</svg>
